!!!OTL: Zu Mantua in Banden (3-35), S. 89f
!!!id: K1169
**kern
*clefG2
*k[f#]
*G:
{4d
=1
4.g
8f#
4g
4a
=2
4g
4f#
4e}
=3
{4d
=4
4.g
8f#
4g
4a
=5
2d}
4r
=6
{4d
=7
4.a
8a-
4a
4b
=8
4.cc
8b
4a}
=9
{4g
=10
4f#
4d
4.b
8a
=11
2g}
4r
=12
{4B
=13
4.e
8g
4f#
4e
=14
4e-
4b
4.B}
=15
{8b
=16
4.cc
8b
4a
4g
=17
4f#
4e
4.b}
=18
{8d
=19
4.b
8b
4.cc
8b
=20
2a
4e}
=21
{4e
=22
4.d
8g
4.b
8a
=23
2g}
4r
=24
{4d
=25
4.b
8b
4.cc
8b
=26
4a
4ee
4cc}
==
*-
!!!minrhy: 8
!!!meters: 4/4 ]  ZZ[9
!!!cut: Zu Mantua in Banden (3-35), S. 89f
!!!reg: Luxemburg
!!!trd: KINTZELE, Guillaume: An der Ucht, Bd. 3 Luxemburg 1928
!!!rhy1: X_  X_.XX_X_  X_X_X_
!!!rhy2: X_  X_.XX_X_  X__0_
!!!key: K1169  08  G 4/4 ]  ZZ[9
!!!mod: NEUNTONSKALA DUR ?]  AMBITUS[11
!!!kad: -6-521-33-614
!!!akz: 111-6_11-5_2242_-731_-6-7-6b-3_42-73_342-6_-531_3424_
!!!fot: 'a__aw_b__c__d__e__ds"f__ds"
!!!for: 'a__aw_aw_b__av_av_c__cw_cw_
!!!fok: '^a_^__^a_S__^__V__^a_^a_^a_
!! PHRAS[AUFTAKTIG]
!!!fkt: historisches Lied
!!!bem: in der Quelle mit einer 2. Stimme versehen
!! KINTZELE
!! PR[27] 2K[4] 2G[9] 3K[2] 3G[0] 4A[6] 4Ü[0] 5A[6] 6K[0] 6G[0]
!! 7K[0] 7G[0] 8A[0] MEHR[0] SI[27] ABS[125] SR[13] SP[14]
!! ST[24] 2k[9] 2g[26] 3k[6] 3g[2] 4d[2] 4ü[0] 5d[0] 6k[1] 6g[0]
!! 7k[0] 7g[0] 8d[0] mehr[0] si[46] dm[-19] sr[34] sp[11]
!! 1F[78] 2F[10] 3F[4] 4F[0] LF[0] 2P[8] 3P[0] 4P[0] TRI[0] DF[4] AB[138]
!! TF[0] U3K[0] U3[0] U4[0] U4Ü[0] U5[0] U6K[0] U6[0] U7K[0] U7[0]
!! N1[3] N2K[0] N2[10] N3K[0] N3[15] N4[8] N4Ü[1] N5[33] N6K[0] N6[15]
!!!n7k: 0] N7[6] O1[7] O2K[0] O2[2] O3K[0] O3[0] HÖ[0
